coreui/free/cil-loop.svg

<svg xmlns="http://www.w3.org/2000/svg" viewBox="0 0 512 512">
  <path fill="var(--ci-primary-color, currentColor)" d="M464,210.511V264A112.127,112.127,0,0,1,352,376H78.627l44.686-44.687-22.626-22.626L56,353.373l-4.415,4.414L18.019,391.354,92.041,474.63l23.918-21.26L75.63,408H352c79.4,0,144-64.6,144-144V178.511Z" class="ci-primary"/>
  <path fill="var(--ci-primary-color, currentColor)" d="M48,256A112.127,112.127,0,0,1,160,144H433.373l-44.686,44.687,22.626,22.626L456,166.627l4.117-4.116,33.864-33.865L419.959,45.37,396.041,66.63,436.37,112H160C80.6,112,16,176.6,16,256v85.787l32-32Z" class="ci-primary"/>
</svg>

<svg viewBox="0 0 512 512" xmlns="http://www.w3.org/2000/svg"><g><path d="M464 210.51v53.48 0c-.07 61.82-50.18 111.93-112 112H78.62l44.68-44.69 -22.63-22.63 -44.69 44.68 -4.42 4.41L18 391.32l74.022 83.27 23.91-21.26 -40.33-45.37h276.37c79.4 0 144-64.6 144-144v-85.49Z"/><path d="M48 256l0-.001c.06-61.83 50.17-111.94 112-112h273.37l-44.69 44.68 22.62 22.62 44.68-44.69 4.11-4.12 33.86-33.87 -74.03-83.28L396 66.599l40.32 45.37H159.95c-79.4 0-144 64.6-144 144v85.78l32-32Z"/></g></svg>
